src/assets/images/colegio.svg

<svg id="Capa_1" enable-background="new 0 0 512 512" height="512" viewBox="0 0 512 512" width="512" xmlns="http://www.w3.org/2000/svg"><g><path d="m122.008 89.145 59.992 21.173v84.682c0 8.284 6.716 15 15 15h200c8.284 0 15-6.716 15-15v-84.682l40-14.118v58.8c0 8.284 6.716 15 15 15s15-6.716 15-15v-80c0-6.359-4.011-12.028-10.008-14.145l-170-60c-3.23-1.141-6.754-1.141-9.984 0l-170 60c-5.997 2.117-10.008 7.786-10.008 14.145s4.011 12.028 10.008 14.145zm259.992 90.855h-170v-59.094l80.008 28.238c1.615.57 3.304.855 4.992.855s3.377-.285 4.992-.855l80.008-28.238zm-85-149.093 124.931 44.093-124.931 44.093-124.931-44.093z"/><path d="m480.892 274.583c-18.899-6.4-38.938-.291-51.059 15.558l-55.863 73.051c.009-.397.03-.792.03-1.192 0-27.57-22.43-50-50-50h-99.232c-31.637-26.916-76.35-31.706-112.768-12.853v-2.147c0-8.284-6.716-15-15-15h-82c-8.284 0-15 6.716-15 15v200c0 8.284 6.716 15 15 15h82c8.284 0 15-6.716 15-15v-15h245.864c35.895 0 68.913-18.026 88.324-48.221l58.539-91.061c4.758-7.401 7.273-15.964 7.273-24.763 0-19.95-12.211-36.976-31.108-43.372zm-398.892 207.417h-52v-170h52zm397.492-155.504-58.539 91.061c-13.865 21.567-37.45 34.443-63.089 34.443h-245.864v-117.281l5.017-3.583c28.139-20.101 66.657-17.293 91.586 6.677 2.794 2.687 6.52 4.188 10.396 4.188h105c11.028 0 20 8.972 20 20s-8.972 20-20 20h-104.999-2c-8.284 0-15 6.716-15 15s6.716 15 15 15h2 105 13.35c23.208 0 45.479-11.006 59.577-29.441l56.737-74.195c6.383-8.347 15.091-6.218 17.608-5.365s10.728 4.449 10.728 14.958c0 3.032-.867 5.985-2.508 8.538z"/></g></svg>

<?xml version="1.0" encoding="UTF-8" standalone="no"?><!-- Generator: Gravit.io --><svg xmlns="http://www.w3.org/2000/svg" xmlns:xlink="http://www.w3.org/1999/xlink" style="isolation:isolate" viewBox="0 0 512 512" width="512pt" height="512pt"><defs><clipPath id="_clipPath_FuR0NZd91xLJLbAVnejIEcLDGpBWYwpK"><rect width="512" height="512"/></clipPath></defs><g clip-path="url(#_clipPath_FuR0NZd91xLJLbAVnejIEcLDGpBWYwpK)"><path d=" M 382 180 L 212 180 L 212 120.906 L 292.008 149.144 C 293.623 149.714 295.312 149.999 297 149.999 C 298.688 149.999 300.377 149.714 301.992 149.144 L 382 120.906 L 382 180 L 382 180 Z  M 297 30.907 L 421.931 75 L 297 119.093 L 172.069 75 L 297 30.907 L 297 30.907 Z  M 122.008 89.145 L 182 110.318 L 182 195 C 182 203.284 188.716 210 197 210 L 397 210 C 405.284 210 412 203.284 412 195 L 412 110.318 L 452 96.2 L 452 155 C 452 163.284 458.716 170 467 170 C 475.284 170 482 163.284 482 155 L 482 75 C 482 68.641 477.989 62.972 471.992 60.855 L 301.992 0.855 C 298.762 -0.286 295.238 -0.286 292.008 0.855 L 122.008 60.855 C 116.011 62.972 112 68.641 112 75 C 112 81.359 116.011 87.028 122.008 89.145 L 122.008 89.145 L 122.008 89.145 Z  M 82 482 L 30 482 L 30 312 L 82 312 L 82 482 L 82 482 Z  M 479.492 326.496 L 420.953 417.557 C 407.088 439.124 383.503 452 357.864 452 L 112 452 L 112 334.719 L 117.017 331.136 C 145.156 311.035 183.674 313.843 208.603 337.813 C 211.397 340.5 215.123 342.001 218.999 342.001 L 323.999 342.001 C 335.027 342.001 343.999 350.973 343.999 362.001 C 343.999 373.029 335.027 382.001 323.999 382.001 L 219 382.001 L 217 382.001 C 208.716 382.001 202 388.717 202 397.001 C 202 405.285 208.716 412.001 217 412.001 L 219 412.001 L 324 412.001 L 337.35 412.001 C 360.558 412.001 382.829 400.995 396.927 382.56 L 453.664 308.365 C 460.047 300.018 468.755 302.147 471.272 303 C 473.789 303.853 482 307.449 482 317.958 C 482 320.99 481.133 323.943 479.492 326.496 L 479.492 326.496 L 479.492 326.496 Z  M 480.892 274.583 C 461.993 268.183 441.954 274.292 429.833 290.141 L 373.97 363.192 C 373.979 362.795 374 362.4 374 362 C 374 334.43 351.57 312 324 312 L 224.768 312 C 193.131 285.084 148.418 280.294 112 299.147 L 112 297 C 112 288.716 105.284 282 97 282 L 15 282 C 6.716 282 0 288.716 0 297 L 0 497 C 0 505.284 6.716 512 15 512 L 97 512 C 105.284 512 112 505.284 112 497 L 112 482 L 357.864 482 C 393.759 482 426.777 463.974 446.188 433.779 L 504.727 342.718 C 509.485 335.317 512 326.754 512 317.955 C 512 298.005 499.789 280.979 480.892 274.583 L 480.892 274.583 L 480.892 274.583 Z " fill-rule="evenodd" fill="rgb(90,90,90)"/></g></svg>
